X:1
T:Rehoboth, 77.77 D
T:Rehoboth, 77.77 D
T:Henry Vander Werp, 1911
T:Public Domain Courtesy of the Cyber Hymnal™
C:Henry Vander Werp, 1911
Z:Public Domain
Z:Courtesy of the Cyber Hymnal™
%%score ( 1 2 ) ( 3 4 )
L:1/8
M:3/4
K:Ab
V:1 treble 
V:2 treble 
V:3 bass 
V:4 bass 
V:1
 [CE]4 [=B,F]2 | [CE]4 [Ec]2 | [Ec]4 [DB]2 | [CA]6 | [CE]4 [CF]2 | [Fd]4 [Ec]2 | [=DB]4 [DA]2 | %7
 [DG]6 | E4 [=DF]2 | [DG]4 [CA]2 | [EB]4 [FB]2 | [Ec]6 | F4 [EF]2 | [Fd]4 [Ec]2 | [=DF]4 [_DG]2 | %15
 [CA]6 | [CE]4 C2 | [CE]4 [CA]2 | [DB]4 [CA]2 | [DF]6 | [DG]4 [EA]2 | [DB]4 [CA]2 | %22
 [EG]2 [=DA]2 [DF]2 | E6 | [CE]4 [CE]2 | [CA]4 [CE]2 | [DB]4 [DE]2 | [Cc]6 | d2 c2 [FB]2 | %29
 [FA]2 G2 F2 | E4 [DB]2 | [CA]6 |] %32
V:2
 x6 | x6 | x6 | x6 | x6 | x6 | x6 | x6 | x6 | x6 | x6 | x6 | F4 x2 | x6 | x6 | x6 | x4 C2 | x6 | %18
 x6 | x6 | x6 | x6 | x6 | x6 | x6 | x6 | x6 | x6 | F4 x2 | x2 G2 F2 | E4 x2 | x6 |] %32
V:3
 [A,,E,]4 [A,,=D,]2 | [A,,E,]4 [A,,A,]2 | [E,G,]4 [E,G,]2 | [A,,E,]6 | [A,,A,]4 [A,,A,]2 | %5
 [F,=A,]4 [F,A,]2 | [B,,F,]4 [B,,F,]2 | E,6 | [A,,C]4 [A,,=B,]2 | [E,B,]4 [F,A,]2 | %10
 [E,G,]4 [D,F,]2 | [C,G,]6 | [D,D]4 [C,=A,]2 | [B,,B,]4 [F,=A,]2 | [B,,B,]4 [E,B,]2 | [A,,A,]6 | %16
 [A,,A,]4 [A,,E,]2 | [A,,A,]4 [A,,A,]2 | [E,G,]4 F,2 | [D,A,]6 | [B,,B,]4 [C,A,]2 | [E,G,]4 F,2 | %22
 [B,,B,]4 [B,,A,]2 | [E,G,]6 | [A,,A,]4 [A,,A,]2 | [A,,A,]4 [C,A,]2 | [E,G,]4 [E,G,]2 | [A,,E,]6 | %28
 [B,,B,]2 [C,A,]2 [D,D]2 | [=D,=B,]4 [D,B,]2 | C4 [E,G,]2 | [A,,E,]6 |] %32
V:4
 x6 | x6 | x6 | x6 | x6 | x6 | x6 | E,6 | x6 | x6 | x6 | x6 | x6 | x6 | x6 | x6 | x6 | x6 | %18
 x4 F,2 | x6 | x6 | x4 F,2 | x6 | x6 | x6 | x6 | x6 | x6 | x6 | x6 | E,2 A,2 x2 | x6 |] %32

